Gruvbox-Plus-Dark/actions/22/mic-ready.svg

<svg xmlns="http://www.w3.org/2000/svg" width="22" height="22" viewBox="0 0 22 22">
 <defs>
  <style id="current-color-scheme" type="text/css">
   .ColorScheme-Text { color:#ebdbb2; } .ColorScheme-Highlight { color:#458588; }
  </style>
 </defs>
 <path style="fill:currentColor;opacity:0.3" class="ColorScheme-Text" d="M 8 0 C 6.3379 0 5 1.3381 5 3 L 5 8.0019531 C 5 9.6638531 6.3379 11 8 11 C 9.6621 11 11 9.6637531 11 8.0019531 L 11 3 C 11 1.3381 9.6621 0 8 0 z M 2 7.0039062 L 2 8.0019531 C 2.00001 10.967153 4.168 13.429603 7 13.908203 L 7 16 L 9 16 L 9 13.908203 C 11.832 13.429543 14 10.967053 14 8.0019531 L 14 7.0039062 L 12 7.0039062 L 12 8.0019531 C 12 10.235053 10.2334 12 8 12 C 5.7666 12 4 10.235053 4 8.0019531 L 4 7.0039062 L 2 7.0039062 z" transform="translate(3 3)"/>
</svg>

<svg width="22" height="22" version="1.1" viewBox="0 0 22 22" xmlns="http://www.w3.org/2000/svg">
  <defs>
    <style type="text/css">.ColorScheme-Text { color:#ebdbb2; } .ColorScheme-Highlight { color:#458588; }</style>
  </defs>
  <path class="ColorScheme-Text" transform="translate(3,3)" d="m8 1c-1.662 0-3 1.338-3 3v4.004c0 1.662 1.338 2.998 3 2.998s3-1.336 3-2.998v-4.004c0-1.662-1.338-3-3-3zm-6 6.006v0.998c1e-5 2.965 2.168 5.428 5 5.906v2.092h2v-2.092c2.832-0.4787 5-2.941 5-5.906v-0.998h-2v0.998c0 2.233-1.767 3.998-4 3.998s-4-1.765-4-3.998v-0.998z" fill="#458588"/>
</svg>
